public/static/images/default/kausal-logo-white.svg

<svg width="358" height="110" viewBox="0 0 358 110" fill="none" xmlns="http://www.w3.org/2000/svg">
<path d="M0 97.4918V9.51366H16.258V45.082L49.155 9.51366H69.2234L36.4534 44.4536L70.1125 97.4918H50.1711L24.768 56.7705L16.258 65.9454V97.4918H0Z" fill="#F7F6F3"/>
<path d="M93.1619 99C87.7425 99 83.297 98.1621 79.8252 96.4863C76.3535 94.7268 73.7708 92.4226 72.0773 89.5738C70.3838 86.725 69.537 83.5829 69.537 80.1475C69.537 74.3661 71.8233 69.6739 76.3958 66.071C80.9684 62.4681 87.8272 60.6667 96.9723 60.6667H112.976V59.1585C112.976 54.8852 111.748 51.7432 109.293 49.7322C106.837 47.7213 103.789 46.7159 100.148 46.7159C96.8453 46.7159 93.9663 47.5118 91.5107 49.1038C89.055 50.612 87.5309 52.8743 86.9381 55.8907H71.0612C71.4846 51.3661 73.0087 47.4281 75.6337 44.0765C78.3434 40.725 81.8152 38.1694 86.049 36.4098C90.2829 34.5665 95.0248 33.6448 100.275 33.6448C109.25 33.6448 116.321 35.8652 121.486 40.306C126.652 44.7468 129.234 51.031 129.234 59.1585V97.4918H115.39L113.865 87.4372C112.002 90.7887 109.378 93.5537 105.99 95.7322C102.688 97.9107 98.4118 99 93.1619 99ZM96.8453 86.4317C101.503 86.4317 105.101 84.9235 107.642 81.9071C110.267 78.8907 111.918 75.1621 112.595 70.7213H98.7505C94.432 70.7213 91.3413 71.5173 89.4784 73.1093C87.6155 74.6175 86.6841 76.5027 86.6841 78.765C86.6841 81.1949 87.6155 83.0801 89.4784 84.4208C91.3413 85.7614 93.7969 86.4317 96.8453 86.4317Z" fill="#F7F6F3"/>
<path d="M200.382 35.153V97.4918H186.029L184.759 86.9344C182.811 90.6211 179.975 93.5537 176.249 95.7322C172.608 97.9107 168.289 99 163.293 99C155.503 99 149.449 96.5701 145.13 91.7104C140.812 86.8506 138.652 79.7286 138.652 70.3443V35.153H154.91V68.8361C154.91 74.1985 156.011 78.3042 158.213 81.153C160.414 84.0018 163.844 85.4262 168.501 85.4262C173.073 85.4262 176.799 83.8342 179.678 80.6503C182.642 77.4663 184.124 73.0255 184.124 67.3279V35.153H200.382Z" fill="#F7F6F3"/>
<path d="M237.902 99C232.313 99 227.402 98.1202 223.168 96.3606C218.934 94.5173 215.547 92.0036 213.007 88.8197C210.467 85.6357 208.942 81.949 208.434 77.7596H224.819C225.327 80.1894 226.682 82.2841 228.884 84.0437C231.17 85.7195 234.091 86.5574 237.648 86.5574C241.204 86.5574 243.787 85.8452 245.396 84.4208C247.089 82.9963 247.936 81.3625 247.936 79.5191C247.936 76.8379 246.751 75.0364 244.38 74.1148C242.009 73.1093 238.706 72.1457 234.473 71.224C231.763 70.6375 229.011 69.9253 226.217 69.0874C223.422 68.2495 220.839 67.2022 218.469 65.9454C216.182 64.6047 214.319 62.929 212.88 60.918C211.44 58.8233 210.721 56.2678 210.721 53.2514C210.721 47.7213 212.922 43.071 217.325 39.3005C221.813 35.5301 228.079 33.6448 236.124 33.6448C243.575 33.6448 249.503 35.3625 253.906 38.7978C258.394 42.2331 261.061 46.9672 261.908 53H246.539C245.608 48.3916 242.093 46.0874 235.997 46.0874C232.948 46.0874 230.577 46.674 228.884 47.847C227.275 49.02 226.471 50.4863 226.471 52.2459C226.471 54.0893 227.698 55.5556 230.154 56.6448C232.61 57.7341 235.87 58.7395 239.934 59.6612C244.337 60.6667 248.36 61.7978 252.001 63.0546C255.726 64.2277 258.69 66.0291 260.892 68.459C263.093 70.8051 264.194 74.1985 264.194 78.6393C264.279 82.4936 263.263 85.9709 261.146 89.071C259.029 92.1712 255.98 94.6011 252.001 96.3606C248.021 98.1202 243.321 99 237.902 99Z" fill="#F7F6F3"/>
<path d="M295.235 99C289.816 99 285.371 98.1621 281.899 96.4863C278.427 94.7268 275.844 92.4226 274.151 89.5738C272.457 86.725 271.611 83.5829 271.611 80.1475C271.611 74.3661 273.897 69.6739 278.469 66.071C283.042 62.4681 289.901 60.6667 299.046 60.6667H315.05V59.1585C315.05 54.8852 313.822 51.7432 311.366 49.7322C308.911 47.7213 305.862 46.7159 302.221 46.7159C298.919 46.7159 296.04 47.5118 293.584 49.1038C291.129 50.612 289.604 52.8743 289.012 55.8907H273.135C273.558 51.3661 275.082 47.4281 277.707 44.0765C280.417 40.725 283.889 38.1694 288.123 36.4098C292.356 34.5665 297.098 33.6448 302.348 33.6448C311.324 33.6448 318.395 35.8652 323.56 40.306C328.725 44.7468 331.308 51.031 331.308 59.1585V97.4918H317.463L315.939 87.4372C314.076 90.7887 311.451 93.5537 308.064 95.7322C304.762 97.9107 300.485 99 295.235 99ZM298.919 86.4317C303.576 86.4317 307.175 84.9235 309.715 81.9071C312.34 78.8907 313.991 75.1621 314.669 70.7213H300.824C296.506 70.7213 293.415 71.5173 291.552 73.1093C289.689 74.6175 288.758 76.5027 288.758 78.765C288.758 81.1949 289.689 83.0801 291.552 84.4208C293.415 85.7614 295.871 86.4317 298.919 86.4317Z" fill="#F7F6F3"/>
<path d="M341.742 97.4918V7H358V97.4918H341.742Z" fill="#F7F6F3"/>
</svg>

<svg viewBox="0 0 358 110" xmlns="http://www.w3.org/2000/svg">
  <path d="M0 97.492V9.514h16.258v35.568L49.155 9.514h20.068l-32.77 34.94 33.66 53.038H50.17L24.768 56.77l-8.51 9.175v31.547H0z" fill="#F7F6F3"/>
  <path d="M93.162 99c-5.42 0-9.865-.838-13.337-2.514-3.472-1.76-6.054-4.063-7.748-6.912-1.693-2.849-2.54-5.991-2.54-9.427 0-5.78 2.286-10.473 6.859-14.076 4.572-3.603 11.431-5.404 20.576-5.404h16.004v-1.509c0-4.273-1.228-7.415-3.683-9.426-2.456-2.01-5.504-3.016-9.145-3.016-3.303 0-6.182.796-8.637 2.388-2.456 1.508-3.98 3.77-4.573 6.787H71.061c.424-4.525 1.948-8.463 4.573-11.814 2.71-3.352 6.181-5.908 10.415-7.667 4.234-1.843 8.976-2.765 14.226-2.765 8.975 0 16.046 2.22 21.211 6.661 5.166 4.44 7.748 10.725 7.748 18.852v38.334H115.39l-1.525-10.055c-1.863 3.352-4.487 6.117-7.875 8.295C102.688 97.911 98.412 99 93.162 99zm3.683-12.568c4.658 0 8.256-1.508 10.797-4.525 2.625-3.016 4.276-6.745 4.953-11.186H98.751c-4.319 0-7.41.796-9.273 2.388-1.862 1.509-2.794 3.394-2.794 5.656 0 2.43.931 4.315 2.794 5.656 1.863 1.34 4.319 2.01 7.367 2.01zm103.537-51.279v62.339h-14.353l-1.27-10.558c-1.948 3.687-4.784 6.62-8.51 8.798-3.641 2.179-7.96 3.268-12.956 3.268-7.79 0-13.844-2.43-18.163-7.29-4.318-4.86-6.478-11.981-6.478-21.366V35.153h16.258v33.683c0 5.362 1.101 9.468 3.303 12.317 2.201 2.849 5.631 4.273 10.288 4.273 4.572 0 8.298-1.592 11.177-4.776 2.964-3.184 4.446-7.625 4.446-13.322V35.153h16.258zM237.902 99c-5.589 0-10.5-.88-14.734-2.64-4.234-1.843-7.621-4.356-10.161-7.54-2.54-3.184-4.065-6.871-4.573-11.06h16.385c.508 2.43 1.863 4.524 4.065 6.284 2.286 1.675 5.207 2.513 8.764 2.513 3.556 0 6.139-.712 7.748-2.136 1.693-1.425 2.54-3.059 2.54-4.902 0-2.681-1.185-4.483-3.556-5.404-2.371-1.006-5.674-1.97-9.907-2.89a109.107 109.107 0 01-8.256-2.138c-2.795-.838-5.378-1.885-7.748-3.142-2.287-1.34-4.15-3.016-5.589-5.027-1.44-2.095-2.159-4.65-2.159-7.667 0-5.53 2.201-10.18 6.604-13.95 4.488-3.77 10.754-5.656 18.799-5.656 7.451 0 13.379 1.717 17.782 5.153 4.488 3.435 7.155 8.17 8.002 14.202h-15.369c-.931-4.608-4.446-6.913-10.542-6.913-3.049 0-5.42.587-7.113 1.76-1.609 1.173-2.413 2.64-2.413 4.399 0 1.843 1.227 3.31 3.683 4.399 2.456 1.09 5.716 2.094 9.78 3.016 4.403 1.006 8.426 2.137 12.067 3.394 3.725 1.173 6.689 2.974 8.891 5.404 2.201 2.346 3.302 5.74 3.302 10.18.085 3.855-.931 7.332-3.048 10.432-2.117 3.1-5.166 5.53-9.145 7.29-3.98 1.76-8.68 2.639-14.099 2.639zm57.334 0c-5.42 0-9.865-.838-13.337-2.514-3.472-1.76-6.055-4.063-7.748-6.912-1.694-2.849-2.54-5.991-2.54-9.427 0-5.78 2.286-10.473 6.858-14.076 4.573-3.603 11.432-5.404 20.577-5.404h16.004v-1.509c0-4.273-1.228-7.415-3.684-9.426-2.455-2.01-5.504-3.016-9.145-3.016-3.302 0-6.181.796-8.637 2.388-2.455 1.508-3.98 3.77-4.572 6.787h-15.877c.423-4.525 1.947-8.463 4.572-11.814 2.71-3.352 6.182-5.908 10.416-7.667 4.233-1.843 8.975-2.765 14.225-2.765 8.976 0 16.047 2.22 21.212 6.661 5.165 4.44 7.748 10.725 7.748 18.852v38.334h-13.845l-1.524-10.055c-1.863 3.352-4.488 6.117-7.875 8.295-3.302 2.179-7.579 3.268-12.828 3.268zm3.683-12.568c4.657 0 8.256-1.508 10.796-4.525 2.625-3.016 4.276-6.745 4.954-11.186h-13.845c-4.318 0-7.409.796-9.272 2.388-1.863 1.509-2.794 3.394-2.794 5.656 0 2.43.931 4.315 2.794 5.656 1.863 1.34 4.319 2.01 7.367 2.01zm42.823 11.06V7H358v90.492h-16.258z" fill="#F7F6F3"/>
</svg>
